pro/src/icons/stroke-visual-art.svg

<svg width="48" height="48" viewBox="0 0 48 48" fill="currentColor" xmlns="http://www.w3.org/2000/svg">
<g id="icon">
<path id="Union" fill-rule="evenodd" clip-rule="evenodd" d="M4 10C4 8.89228 4.89228 8 6 8H31C31.5523 8 32 7.55228 32 7C32 6.44772 31.5523 6 31 6H6C3.78772 6 2 7.78772 2 10V29.9997V29.9998V38C2 40.2123 3.78772 42 6 42H36.994H37.006H42C44.2123 42 46 40.2123 46 38V10C46 7.78772 44.2123 6 42 6H38.79C38.2377 6 37.79 6.44772 37.79 7C37.79 7.55228 38.2377 8 38.79 8H42C43.1077 8 44 8.89228 44 10V33.2806L38.035 28.3775C36.8497 27.4026 35.1089 27.4769 34.0129 28.5729L32.2929 30.2929C31.9024 30.6834 31.9024 31.3166 32.2929 31.7071C32.6834 32.0976 33.3166 32.0976 33.7071 31.7071L35.4271 29.9871C35.791 29.6232 36.3699 29.5974 36.7646 29.9222L43.955 35.8325C43.9698 35.8447 43.9848 35.8563 44 35.8674V38C44 39.1077 43.1077 40 42 40H37.4142L22.7206 25.3064C22.7112 25.2967 22.7017 25.2871 22.6919 25.2777L16.1871 18.7729C14.975 17.5608 13.008 17.6042 11.8529 18.8642L11.8529 18.8643L4 27.4296V10ZM15.3252 27.22C16.9018 27.2124 18.643 26.8528 20.4179 25.8321L14.7729 20.1871C14.3651 19.7793 13.7121 19.7959 13.3272 20.2157L13.3271 20.2158L8.69767 25.2652C8.7682 25.3115 8.87077 25.3766 9.00302 25.4552C9.29356 25.6277 9.72519 25.8634 10.2732 26.1049C10.7786 26.3276 11.0078 26.9179 10.7851 27.4233C10.5624 27.9287 9.97211 28.1578 9.46672 27.9351C8.83478 27.6566 8.3314 27.3824 7.98194 27.1749C7.80703 27.071 7.67015 26.9836 7.57443 26.9202C7.52655 26.8886 7.48892 26.8629 7.46194 26.8442L7.42946 26.8214L7.41929 26.8141L7.41574 26.8116L7.41347 26.8099L7.90972 26.1247L7.90944 26.125C7.41322 26.8098 7.41334 26.8099 7.41347 26.8099C7.38685 26.7907 7.36146 26.7703 7.33732 26.749L4 30.3891V38C4 39.1077 4.89228 40 6 40H34.5858L21.8748 27.289C19.624 28.7055 17.3698 29.2101 15.3349 29.22C14.7827 29.2227 14.3328 28.7771 14.3301 28.2249C14.3274 27.6726 14.7729 27.2227 15.3252 27.22ZM30 17C30 15.8954 30.8954 15 32 15C33.1046 15 34 15.8954 34 17C34 18.1046 33.1046 19 32 19C30.8954 19 30 18.1046 30 17ZM32 13C29.7909 13 28 14.7909 28 17C28 19.2091 29.7909 21 32 21C34.2091 21 36 19.2091 36 17C36 14.7909 34.2091 13 32 13Z" />
</g>
</svg>

<svg xmlns="http://www.w3.org/2000/svg" width="48" height="48" fill="currentColor"><g id="icon"><path id="Union" fill-rule="evenodd" d="M4 10c0-1.108.892-2 2-2h25a1 1 0 1 0 0-2H6c-2.212 0-4 1.788-4 4v28c0 2.212 1.788 4 4 4h36c2.212 0 4-1.788 4-4V10c0-2.212-1.788-4-4-4h-3.21a1 1 0 1 0 0 2H42c1.108 0 2 .892 2 2v23.28l-5.965-4.902a2.996 2.996 0 0 0-4.022.195l-1.72 1.72a1 1 0 0 0 1.414 1.414l1.72-1.72a.996.996 0 0 1 1.338-.065l7.19 5.91.045.035V38c0 1.108-.892 2-2 2h-4.586L22.721 25.306l-.03-.028-6.504-6.505a2.997 2.997 0 0 0-4.334.091L4 27.43zm11.325 17.22a10.17 10.17 0 0 0 5.093-1.388l-5.645-5.645a.997.997 0 0 0-1.446.029l-4.63 5.05q.107.07.306.19c.29.172.722.407 1.27.649a1 1 0 0 1-.806 1.83 14 14 0 0 1-1.485-.76 10 10 0 0 1-.52-.33l-.033-.024-.01-.007-.003-.002-.003-.002.497-.685-.497.685a1 1 0 0 1-.076-.061L4 30.389V38c0 1.108.892 2 2 2h28.586L21.875 27.289c-2.251 1.416-4.505 1.921-6.54 1.931a1 1 0 0 1-.01-2M30 17a2 2 0 1 1 4 0 2 2 0 0 1-4 0m2-4a4 4 0 1 0 0 8 4 4 0 0 0 0-8" clip-rule="evenodd"/></g></svg>
